X:7495
T:The Yellow Tinker
O:england
R:Reel
S:Paddy Canny, Clare (fiddle)
D:Home tape of unknown provenance
N:As played
H:'G2' in bar 13 slid heavily
M:4/4
K:C
DG~G2 DF~F2 | DGdG eGdG | DG~G2 +D3G,3+E | (3FEFCF AB(3cBc |
DGGF DE(3FEF | (3.D.G.G dG eGdG | DG~G2 +D3G,3+E | (3FEF CF AdcA ||
G2dG eGdG | G2dG (3.e.e.d cA | G2eG dGdA | (3.c.d.c AF CFAF |
G2(3.G.G.G e2(3.G.G.G | d2(3.G.G.G edcA | d^cde fefd | (3cdc AF CFAF ||


